packages/foundations/assets/icons/functional/images/layout/zoom_in_28.svg

<svg width="28" height="28" viewBox="0 0 28 28" fill="none" xmlns="http://www.w3.org/2000/svg">
<g clip-path="url(#clip0_185_1516)">
<path fill-rule="evenodd" clip-rule="evenodd" d="M10.5 1.75C15.3398 1.75 19.25 5.66016 19.25 10.5C19.25 12.6055 18.5117 14.5195 17.2812 16.0234L26.0039 24.7461C26.1953 24.9375 26.25 25.1562 26.25 25.375C26.25 25.8945 25.8672 26.25 25.4023 26.25C25.1836 26.25 24.9375 26.1953 24.7461 26.0039L16.0234 17.2812C14.5195 18.5117 12.6055 19.25 10.5 19.25C5.66016 19.25 1.75 15.3398 1.75 10.5C1.75 5.66016 5.66016 1.75 10.5 1.75ZM10.5 3.5C6.64453 3.5 3.5 6.64453 3.5 10.5C3.5 14.3555 6.64453 17.5 10.5 17.5C14.3555 17.5 17.5 14.3555 17.5 10.5C17.5 6.64453 14.3555 3.5 10.5 3.5ZM10.5 6.125C10.8828 6.125 11.375 6.39844 11.375 7V9.625H14C14.4922 9.625 14.875 10.0078 14.875 10.5C14.875 10.9102 14.4922 11.375 14 11.375H11.375V14C11.375 14.4922 10.9922 14.875 10.5 14.875C10.0625 14.875 9.625 14.4922 9.625 14.1094V11.375H7C6.50781 11.375 6.125 10.9922 6.125 10.5C6.125 10.0898 6.37109 9.625 7 9.625H9.625V7C9.625 6.50781 10.0078 6.125 10.5 6.125Z" fill="#1A1C1F"/>
</g>
<defs>
<clipPath id="clip0_185_1516">
<rect width="28" height="28" fill="white"/>
</clipPath>
</defs>
</svg>

<svg xmlns="http://www.w3.org/2000/svg" width="28" height="28" fill="none"><g clip-path="url(#a)"><path fill="#1A1C1F" fill-rule="evenodd" d="M10.5 1.75a8.74 8.74 0 0 1 8.75 8.75c0 2.105-.738 4.02-1.969 5.523l8.723 8.723c.191.192.246.41.246.629 0 .52-.383.875-.848.875-.218 0-.465-.055-.656-.246l-8.723-8.723A8.67 8.67 0 0 1 10.5 19.25a8.74 8.74 0 0 1-8.75-8.75 8.74 8.74 0 0 1 8.75-8.75m0 1.75c-3.855 0-7 3.145-7 7s3.145 7 7 7 7-3.145 7-7-3.145-7-7-7m0 2.625c.383 0 .875.273.875.875v2.625H14c.492 0 .875.383.875.875 0 .41-.383.875-.875.875h-2.625V14a.864.864 0 0 1-.875.875c-.437 0-.875-.383-.875-.766v-2.734H7a.864.864 0 0 1-.875-.875c0-.41.246-.875.875-.875h2.625V7c0-.492.383-.875.875-.875" clip-rule="evenodd"/></g><defs><clipPath id="a"><path fill="#fff" d="M0 0h28v28H0z"/></clipPath></defs></svg>
